Adwaita++/actions/22/map-globe.svg

<svg height="22" viewBox="0 0 22 22" width="22" xmlns="http://www.w3.org/2000/svg">
  <path d="m8.109375 0a8 8 0 0 0 -5.7734375 2.34375 8 8 0 0 0 0 11.3125 8 8 0 0 0 11.3125005 0 8 8 0 0 0 0-11.3125 8 8 0 0 0 -5.539063-2.34375zm-.21875 1a7 7 0 0 1 4.679687 1.7148438l-1.404296 1.4042968a8 5 45 0 0 -5.4238285-2.7421875 7 7 0 0 1 2.1484375-.3769531zm-3.0273438 1.3066406a7 4 45 0 1 5.5937498 2.5214844l-2.4648435 2.4648438-4.5507813-4.5507813a7 4 45 0 1 1.421875-.4355469zm8.4199218 1.109375a7 7 0 0 1 1.335938 6.8105464 8 5 45 0 0 -2.75-5.3964839zm-10.5507811.03125 4.5527343 4.5527344-2.4667968 2.466797a7 4 45 0 1 -2.0859375-7.0195314zm8.4335941 2.0859375a7 4 45 0 1 2.085937 7.0195309l-4.5527342-4.552734zm-9.8007816.2402344a8 5 45 0 0 2.75 5.3964845l-1.4140625 1.414062a7 7 0 0 1 -1.3359375-6.8105465zm6.6269531 2.9335937 4.5507815 4.5507808a7 4 45 0 1 -7.0156252-2.085937zm-3.1738281 3.1738278a8 5 45 0 0 5.4238286 2.742188 7 7 0 0 1 -6.8281255-1.337891z" fill="#444" transform="translate(3 3)"/>
</svg>

<svg xmlns="http://www.w3.org/2000/svg" width="22" height="22" viewBox="0 0 22 22">
 <defs>
  <style id="current-color-scheme" type="text/css">
   .ColorScheme-Text { color:#444444; } .ColorScheme-Highlight { color:#4285f4; }
  </style>
 </defs>
 <path style="fill:currentColor" class="ColorScheme-Text" d="M 8.109375 0 A 8 8 0 0 0 2.3359375 2.34375 A 8 8 0 0 0 2.3359375 13.65625 A 8 8 0 0 0 13.648438 13.65625 A 8 8 0 0 0 13.648438 2.34375 A 8 8 0 0 0 8.109375 0 z M 7.890625 1 A 7 7 0 0 1 12.570312 2.7148438 L 11.166016 4.1191406 A 8 5 45 0 0 5.7421875 1.3769531 A 7 7 0 0 1 7.890625 1 z M 4.8632812 2.3066406 A 7 4 45 0 1 10.457031 4.828125 L 7.9921875 7.2929688 L 3.4414062 2.7421875 A 7 4 45 0 1 4.8632812 2.3066406 z M 13.283203 3.4160156 A 7 7 0 0 1 14.619141 10.226562 A 8 5 45 0 0 11.869141 4.8300781 L 13.283203 3.4160156 z M 2.7324219 3.4472656 L 7.2851562 8 L 4.8183594 10.466797 A 7 4 45 0 1 2.7324219 3.4472656 z M 11.166016 5.5332031 A 7 4 45 0 1 13.251953 12.552734 L 8.6992188 8 L 11.166016 5.5332031 z M 1.3652344 5.7734375 A 8 5 45 0 0 4.1152344 11.169922 L 2.7011719 12.583984 A 7 7 0 0 1 1.3652344 5.7734375 z M 7.9921875 8.7070312 L 12.542969 13.257812 A 7 4 45 0 1 5.5273438 11.171875 L 7.9921875 8.7070312 z M 4.8183594 11.880859 A 8 5 45 0 0 10.242188 14.623047 A 7 7 0 0 1 3.4140625 13.285156 L 4.8183594 11.880859 z" transform="translate(3 3)"/>
</svg>
